configs/marketplace-logos/safe.svg

<svg xmlns="http://www.w3.org/2000/svg" fill="none" viewBox="0 0 512 512">
  <path fill="#fff" d="M0 0h512v512H0z"/>
  <path fill="#000" d="M475.283 255.837h-53.954c-16.093 0-29.147 13.437-29.147 30.032v80.573c0 16.563-13.055 30.016-29.163 30.016H148.428c-16.125 0-29.163 13.421-29.163 30v55.526c0 16.564 13.054 30.016 29.147 30.016h227.025c16.109 0 28.977-13.437 28.977-30.031v-44.536c0-16.564 13.055-28.328 29.164-28.328h41.705c16.094 0 29.148-13.437 29.148-30.031v-93.561c0-16.579-13.054-29.676-29.148-29.676ZM119.249 145.558c0-16.579 13.054-30.016 29.163-30.016h214.467c16.109 0 29.148-13.436 29.148-30.015V30.03c0-16.578-13.039-30.03-29.148-30.03H135.978c-16.109 0-29.148 13.452-29.148 30.031v42.771c0 16.58-13.07 30.031-29.178 30.031H36.147C20.04 102.833 7 116.255 7 132.834v93.669c0 16.579 13.1 29.35 29.21 29.35h53.938c16.109 0 29.148-13.437 29.148-30.031l-.047-80.264Zm111.071 51.935h51.814c16.9 0 30.59 14.103 30.59 31.471v53.329c0 17.368-13.706 31.471-30.59 31.471h-51.799c-16.899 0-30.589-14.118-30.589-31.471v-53.344c0-17.384 13.705-31.471 30.589-31.471l-.015.015Z"/>
</svg>

<svg width="512" height="512" viewBox="0 0 512 512" fill="none" xmlns="http://www.w3.org/2000/svg">
<rect width="512" height="512" fill="white"/>
<path d="M475.283 255.837H421.329C405.236 255.837 392.182 269.274 392.182 285.869V366.442C392.182 383.005 379.127 396.458 363.019 396.458H148.428C132.303 396.458 119.265 409.879 119.265 426.458V481.984C119.265 498.548 132.319 512 148.412 512H375.437C391.546 512 404.414 498.563 404.414 481.969V437.433C404.414 420.869 417.469 409.105 433.578 409.105H475.283C491.377 409.105 504.431 395.668 504.431 379.074V285.513C504.431 268.934 491.377 255.837 475.283 255.837ZM119.249 145.558C119.249 128.979 132.303 115.542 148.412 115.542H362.879C378.988 115.542 392.027 102.106 392.027 85.5268V30.0311C392.027 13.4521 378.988 0 362.879 0H135.978C119.869 0 106.83 13.4521 106.83 30.0311V72.8023C106.83 89.3813 93.7604 102.833 77.6518 102.833H36.1475C20.0388 102.833 7 116.255 7 132.834V226.503C7 243.082 20.1008 255.853 36.2095 255.853H90.148C106.257 255.853 119.296 242.416 119.296 225.822L119.249 145.558ZM230.32 197.493H282.134C299.034 197.493 312.724 211.596 312.724 228.964V282.293C312.724 299.661 299.018 313.764 282.134 313.764H230.335C213.436 313.764 199.746 299.646 199.746 282.293V228.949C199.746 211.565 213.451 197.478 230.335 197.478L230.32 197.493Z" fill="black"/>
</svg>
